icons/linear-new-office-doc-file-pdf.svg

<svg xmlns="http://www.w3.org/2000/svg" width="32px" height="32px" viewBox="0 0 32 32" version="1.1">
    <title>linear-new-office-doc-file-pdf</title>
    <g id="linear-new-office-doc-file-pdf" stroke-width="1" fill-rule="evenodd">
        <path d="M20,2 C20.2652165,2 20.5195704,2.10535684 20.7071068,2.29289322 L27.415,9 L29,9 C29.5522847,9 30,9.44771525 30,10 L30,23 C30,23.5522847 29.5522847,24 29,24 L28,24 L28,29 C28,29.5522847 27.5522847,30 27,30 L5,30 C4.44771525,30 4,29.5522847 4,29 L4,24 L3,24 C2.44771525,24 2,23.5522847 2,23 L2,10 C2,9.44771525 2.44771525,9 3,9 L4,9 L4,3 C4,2.44771525 4.44771525,2 5,2 L20,2 Z M26,24 L6,24 L6,28 L26,28 L26,24 Z M28,11 L4,11 L4,22 L28,22 L28,11 Z M10.4,12.5 C11.0075132,12.5 11.5,12.9924868 11.5,13.6 L11.5,17.4 C11.5,18.0075132 11.0075132,18.5 10.4,18.5 L7.5,18.5 L7.5,20.5 L5.5,20.5 L5.5,12.5 L10.4,12.5 Z M17.9,12.5 C18.5075132,12.5 19,12.9924868 19,13.6 L19,19.4 C19,20.0075132 18.5075132,20.5 17.9,20.5 L13,20.5 L13,12.5 L17.9,12.5 Z M26.5,12.5 L26.5,14.5 L22.5,14.5 L22.5,16 L26,16 L26,18 L22.5,18 L22.5,20.5 L20.5,20.5 L20.5,12.5 L26.5,12.5 Z M17,14.5 L15,14.5 L15,18.5 L17,18.5 L17,14.5 Z M9.5,14.5 L7.5,14.5 L7.5,16.5 L9.5,16.5 L9.5,14.5 Z M19.585,4 L6,4 L6,9 L24.585,9 L19.585,4 Z" id="&#24418;&#29366;" fill-rule="nonzero" />
    </g>
</svg>

<svg xmlns="http://www.w3.org/2000/svg" viewBox="0 0 32 32"><path fill="currentColor" d="M20 2a1 1 0 0 1 .707.293L27.415 9H29a1 1 0 0 1 1 1v13a1 1 0 0 1-1 1h-1v5a1 1 0 0 1-1 1H5a1 1 0 0 1-1-1v-5H3a1 1 0 0 1-1-1V10a1 1 0 0 1 1-1h1V3a1 1 0 0 1 1-1zm6 22H6v4h20zm2-13H4v11h24zm-17.6 1.5a1.1 1.1 0 0 1 1.1 1.1v3.8a1.1 1.1 0 0 1-1.1 1.1H7.5v2h-2v-8zm7.5 0a1.1 1.1 0 0 1 1.1 1.1v5.8a1.1 1.1 0 0 1-1.1 1.1H13v-8zm8.6 0v2h-4V16H26v2h-3.5v2.5h-2v-8zm-9.5 2h-2v4h2zm-7.5 0h-2v2h2zM19.585 4H6v5h18.585z"/></svg>
